X: 1767
T: The Old Tap Dance
B: australian traditional tunes wiki
M:4/4
L:1/8
Q: 1/4=100
K:G
V:1 
|:"G"[g2B2][g2B2] gdBd|[g2B2][g2B2][g2B2]ag|"D7"f2f2fgaf|"G"g2gfg2d2|
"G"g2gf gfed|"C"c2cBc2e2|"D7"d2fe dcBA|"G"G2[g2B2][g4B4]:|
|:"G"G2Bd gdBG|"C"E2c2E2c2|"G"G2Bd gdBG|"D7"DFAd fdAF|
"G"G2Bd gdBG|"C"E2c2E2c2|"D7"D2FA fdAF|"G"G2[g2B2][g4B4]:|
% abcbook-tune_id 6342d53a26582c3ffb15730a


% abcbook-boost 0
% abcbook-tablature 
% abcbook-transpose 
% abcbook-lastupdated 1665324382651
% abcbook-soundfonts 
% abcbook-repeats 1
% NFF Book 2006

